svg/300/outlined/airplay.svg

<svg xmlns="http://www.w3.org/2000/svg" width="48" height="48" viewBox="0 -960 960 960"><path d="M292.617-140.001 480-326.769l186.768 186.768H292.617ZM100.001-277.694v-484.612q0-23.529 17.082-40.611 17.082-17.082 40.611-17.082h644.612q23.529 0 40.611 17.082 17.082 17.082 17.082 40.611v484.612q0 23.596-17.048 40.645-17.049 17.048-40.645 17.048H694.615v-45.384h107.691q4.616 0 8.463-3.846 3.846-3.847 3.846-8.463v-484.612q0-4.616-3.846-8.463-3.847-3.846-8.463-3.846H157.694q-4.616 0-8.463 3.846-3.846 3.847-3.846 8.463v484.612q0 4.616 3.846 8.463 3.847 3.846 8.463 3.846H264.77v45.384H157.694q-23.596 0-40.645-17.048-17.048-17.049-17.048-40.645ZM480-497.308Z"/></svg>

<svg xmlns="http://www.w3.org/2000/svg" width="48" height="48" viewBox="0 -960 960 960"><path d="M292.62-140 480-326.77 666.77-140H292.62ZM100-277.69v-484.62q0-23.53 17.08-40.61T157.69-820h644.62q23.53 0 40.61 17.08T860-762.31v484.62q0 23.59-17.05 40.64T802.31-220h-107.7v-45.39h107.7q4.61 0 8.46-3.84 3.84-3.85 3.84-8.46v-484.62q0-4.61-3.84-8.46-3.85-3.84-8.46-3.84H157.69q-4.61 0-8.46 3.84-3.84 3.85-3.84 8.46v484.62q0 4.61 3.84 8.46 3.85 3.84 8.46 3.84h107.08V-220H157.69q-23.59 0-40.64-17.05T100-277.69Zm380-219.62Z"/></svg>
